icons/knotes.svg

<?xml version="1.0" encoding="UTF-8" standalone="no"?>
<svg id="svg2" xmlns:rdf="http://www.w3.org/1999/02/22-rdf-syntax-ns#" xmlns="http://www.w3.org/2000/svg" height="22" width="22" version="1.1" xmlns:cc="http://creativecommons.org/ns#" xmlns:dc="http://purl.org/dc/elements/1.1/">
    <defs id="defs3615">
        <style id="current-color-scheme" type="text/css">
            .ColorScheme-Text {
            color:#0000FF;
            }
            .ColorScheme-Background{
            color:#E9E8E8;
            }
            .ColorScheme-ViewText {
            color:#31363b;
            }
            .ColorScheme-ViewBackground{
            color:#ffffff;
            }
            .ColorScheme-ViewHover {
            color:#000000;
            }
            .ColorScheme-ViewFocus{
            color:#5a5a5a;
            }
            .ColorScheme-ButtonText {
            color:#31363b;
            }
            .ColorScheme-ButtonBackground{
            color:#E9E8E8;
            }
            .ColorScheme-ButtonHover {
            color:#1489ff;
            }
            .ColorScheme-ButtonFocus{
            color:#2B74C7;
            }
        </style>
    </defs>
	<metadata id="metadata7">
		<rdf:RDF>
			<cc:Work rdf:about="">
				<dc:format>image/svg+xml</dc:format>
				<dc:type rdf:resource="http://purl.org/dc/dcmitype/StillImage"/>
				<dc:title/>
				<dc:creator>
					<cc:Agent>
						<dc:title>obnosim</dc:title>
					</cc:Agent>
				</dc:creator>
				<cc:license rdf:resource="http://creativecommons.org/licenses/by-nc-sa/3.0/"/>
			</cc:Work>
			<cc:License rdf:about="http://creativecommons.org/licenses/by-nc-sa/3.0/">
				<cc:permits rdf:resource="http://creativecommons.org/ns#Reproduction"/>
				<cc:permits rdf:resource="http://creativecommons.org/ns#Distribution"/>
				<cc:requires rdf:resource="http://creativecommons.org/ns#Notice"/>
				<cc:requires rdf:resource="http://creativecommons.org/ns#Attribution"/>
				<cc:prohibits rdf:resource="http://creativecommons.org/ns#CommercialUse"/>
				<cc:permits rdf:resource="http://creativecommons.org/ns#DerivativeWorks"/>
				<cc:requires rdf:resource="http://creativecommons.org/ns#ShareAlike"/>
			</cc:License>
		</rdf:RDF>
	</metadata>
	<g id="knotes" transform="translate(-1,-1)">
		<rect id="rect3795" style="opacity:.125;fill:none" height="22" width="22" y="1" x="1"/>
		<path id="path2995" style="fill:currentColor;opacity:.875" class="ColorScheme-Text" d="m4 4c0 4 0 12-3 15h16c3-3 3-11 3-15h-16zm1.5 2h1c.277 0 .5.223.5.5s-.223.5-.5.5h-1c-.277 0-.5-.223-.5-.5s.223-.5.5-.5zm3 0h1c.277 0 .5.223.5.5s-.223.5-.5.5h-1c-.277 0-.5-.223-.5-.5s.223-.5.5-.5zm3 0h1c.277 0 .5.223.5.5s-.223.5-.5.5h-1c-.277 0-.5-.223-.5-.5s.223-.5.5-.5zm3 0h1c.277 0 .5.223.5.5s-.223.5-.5.5h-1c-.277 0-.5-.223-.5-.5s.223-.5.5-.5zm3 0h1c.277 0 .5.223.5.5s-.223.5-.5.5h-1c-.277 0-.5-.223-.5-.5s.223-.5.5-.5zm3.5-2c0 2 .01154 5.0365-.375 8s-1.092 5.9045-2.9062 7.7188l-.313.281h-.406-13l1 1h17v-16z"/>
	</g>
</svg>

<?xml version="1.0" encoding="UTF-8" standalone="no"?>
<!-- Created with Inkscape (http://www.inkscape.org/) -->

<svg
   xmlns:dc="http://purl.org/dc/elements/1.1/"
   xmlns:cc="http://creativecommons.org/ns#"
   xmlns:rdf="http://www.w3.org/1999/02/22-rdf-syntax-ns#"
   xmlns:svg="http://www.w3.org/2000/svg"
   xmlns="http://www.w3.org/2000/svg"
   xmlns:sodipodi="http://sodipodi.sourceforge.net/DTD/sodipodi-0.dtd"
   xmlns:inkscape="http://www.inkscape.org/namespaces/inkscape"
   version="1.1"
   width="22"
   height="22"
   id="svg2"
   inkscape:version="0.91 r13725"
   sodipodi:docname="knotes.svg">
  <sodipodi:namedview
     pagecolor="#323232"
     bordercolor="#666666"
     borderopacity="1"
     objecttolerance="10"
     gridtolerance="10"
     guidetolerance="10"
     inkscape:pageopacity="1"
     inkscape:pageshadow="2"
     inkscape:window-width="1920"
     inkscape:window-height="1056"
     id="namedview11"
     showgrid="true"
     inkscape:showpageshadow="false"
     showborder="false"
     inkscape:zoom="22.627416"
     inkscape:cx="25.970873"
     inkscape:cy="10.615066"
     inkscape:window-x="0"
     inkscape:window-y="-3"
     inkscape:window-maximized="1"
     inkscape:current-layer="knotes"
     fit-margin-top="0"
     fit-margin-left="0"
     fit-margin-right="0"
     fit-margin-bottom="0">
    <inkscape:grid
       type="xygrid"
       id="grid2988"
       empspacing="4"
       visible="true"
       enabled="true"
       snapvisiblegridlinesonly="true"
       originx="-1"
       originy="-1" />
  </sodipodi:namedview>
  <defs
     id="defs4" />
  <metadata
     id="metadata7">
    <rdf:RDF>
      <cc:Work
         rdf:about="">
        <dc:format>image/svg+xml</dc:format>
        <dc:type
           rdf:resource="http://purl.org/dc/dcmitype/StillImage" />
        <dc:title />
        <dc:creator>
          <cc:Agent>
            <dc:title>obnosim</dc:title>
          </cc:Agent>
        </dc:creator>
        <cc:license
           rdf:resource="http://creativecommons.org/licenses/by-nc-sa/3.0/" />
      </cc:Work>
      <cc:License
         rdf:about="http://creativecommons.org/licenses/by-nc-sa/3.0/">
        <cc:permits
           rdf:resource="http://creativecommons.org/ns#Reproduction" />
        <cc:permits
           rdf:resource="http://creativecommons.org/ns#Distribution" />
        <cc:requires
           rdf:resource="http://creativecommons.org/ns#Notice" />
        <cc:requires
           rdf:resource="http://creativecommons.org/ns#Attribution" />
        <cc:prohibits
           rdf:resource="http://creativecommons.org/ns#CommercialUse" />
        <cc:permits
           rdf:resource="http://creativecommons.org/ns#DerivativeWorks" />
        <cc:requires
           rdf:resource="http://creativecommons.org/ns#ShareAlike" />
      </cc:License>
    </rdf:RDF>
  </metadata>
  <g
     id="knotes"
     transform="translate(-1,-1)">
    <rect
       y="1"
       x="1"
       height="22"
       width="22"
       id="rect3795"
       style="opacity:0.125;fill:none;stroke:none" />
    <path
       inkscape:connector-curvature="0"
       d="M 4,4 C 4,8 4,16 1,19 l 16,0 C 20,16 20,8 20,4 L 4,4 Z m 1.5,2 1,0 C 6.777,6 7,6.223 7,6.5 7,6.777 6.777,7 6.5,7 l -1,0 C 5.223,7 5,6.777 5,6.5 5,6.223 5.223,6 5.5,6 Z m 3,0 1,0 C 9.777,6 10,6.223 10,6.5 10,6.777 9.777,7 9.5,7 l -1,0 C 8.223,7 8,6.777 8,6.5 8,6.223 8.223,6 8.5,6 Z m 3,0 1,0 C 12.777,6 13,6.223 13,6.5 13,6.777 12.777,7 12.5,7 l -1,0 C 11.223,7 11,6.777 11,6.5 11,6.223 11.223,6 11.5,6 Z m 3,0 1,0 C 15.777,6 16,6.223 16,6.5 16,6.777 15.777,7 15.5,7 l -1,0 C 14.223,7 14,6.777 14,6.5 14,6.223 14.223,6 14.5,6 Z m 3,0 1,0 C 18.777,6 19,6.223 19,6.5 19,6.777 18.777,7 18.5,7 l -1,0 C 17.223,7 17,6.777 17,6.5 17,6.223 17.223,6 17.5,6 Z M 21,4 c 0,2 0.01154,5.0365301 -0.375,8 -0.38654,2.96347 -1.09198,5.90448 -2.90625,7.71875 L 17.40625,20 17,20 4,20 5,21 22,21 22,5 Z"
       style="fill:#e0e0e0;fill-opacity:1;stroke:none"
       id="path2995" />
  </g>
</svg>
